sharp/svg/hot_tub.svg

<svg xmlns="http://www.w3.org/2000/svg" width="24" height="24"><path fill="none" d="M0 0h24v24H0V0z"/><g fill="currentColor"><circle cx="7" cy="6" r="2"/><path d="M11.15 12c-.31-.22-.59-.46-.82-.72l-1.4-1.55c-.19-.21-.43-.38-.69-.5-.29-.14-.62-.23-.96-.23h-.03C6.01 9 5 10.01 5 11.25V12H2v10h20V12H11.15zM7 20H5v-6h2v6zm4 0H9v-6h2v6zm4 0h-2v-6h2v6zm4 0h-2v-6h2v6zm-.35-14.14l-.07-.07c-.57-.62-.82-1.41-.67-2.2L18 3h-1.89l-.06.43c-.2 1.36.27 2.71 1.3 3.72l.07.06c.57.62.82 1.41.67 2.2l-.11.59h1.91l.06-.43c.21-1.36-.27-2.71-1.3-3.71zm-4 0l-.07-.07c-.57-.62-.82-1.41-.67-2.2L14 3h-1.89l-.06.43c-.2 1.36.27 2.71 1.3 3.72l.07.06c.57.62.82 1.41.67 2.2l-.11.59h1.91l.06-.43c.21-1.36-.27-2.71-1.3-3.71z"/></g></svg>

<?xml version="1.0" encoding="utf-8"?>
<!-- Generator: Adobe Illustrator 19.1.0, SVG Export Plug-In . SVG Version: 6.00 Build 0)  -->
<svg version="1.1" xmlns="http://www.w3.org/2000/svg" xmlns:xlink="http://www.w3.org/1999/xlink" x="0px" y="0px" width="24px"
	 height="24px" viewBox="0 0 24 24" enable-background="new 0 0 24 24" xml:space="preserve">
<g id="Bounding_Boxes">
	<path fill="none" d="M0,0h24v24H0V0z"/>
</g>
<g id="Sharp" fill="currentColor">
	<g>
		<circle cx="7" cy="6" r="2"/>
		<path d="M11.15,12c-0.31-0.22-0.59-0.46-0.82-0.72l-1.4-1.55C8.74,9.52,8.5,9.35,8.24,9.23C7.95,9.09,7.62,9,7.28,9H7.25
			C6.01,9,5,10.01,5,11.25V12H2v10h20V12H11.15z M7,20H5v-6h2V20z M11,20H9v-6h2V20z M15,20h-2v-6h2V20z M19,20h-2v-6h2V20z
			 M18.65,5.86l-0.07-0.07c-0.57-0.62-0.82-1.41-0.67-2.2L18,3h-1.89l-0.06,0.43c-0.2,1.36,0.27,2.71,1.3,3.72l0.07,0.06
			c0.57,0.62,0.82,1.41,0.67,2.2L17.98,10h1.91l0.06-0.43C20.16,8.21,19.68,6.86,18.65,5.86z M14.65,5.86l-0.07-0.07
			c-0.57-0.62-0.82-1.41-0.67-2.2L14,3h-1.89l-0.06,0.43c-0.2,1.36,0.27,2.71,1.3,3.72l0.07,0.06c0.57,0.62,0.82,1.41,0.67,2.2
			L13.98,10h1.91l0.06-0.43C16.16,8.21,15.68,6.86,14.65,5.86z"/>
	</g>
</g>
</svg>
